storage/app/icons/phosphoricons/bold/book-bookmark-bold.svg

<svg xmlns="http://www.w3.org/2000/svg" fill="currentColor" viewBox="0 0 256 256"><path d="M208 20H72a36 36 0 0 0-36 36v168a12 12 0 0 0 12 12h144a12 12 0 0 0 0-24H60v-4a12 12 0 0 1 12-12h136a12 12 0 0 0 12-12V32a12 12 0 0 0-12-12m-88 24h36v59l-10.51-8.41a12 12 0 0 0-15 0L120 103Zm76 128H72a35.6 35.6 0 0 0-12 2.06V56a12 12 0 0 1 12-12h24v84a12 12 0 0 0 19.5 9.37l22.49-18 22.51 18A12 12 0 0 0 180 128V44h16Z"/></svg>

<svg xmlns="http://www.w3.org/2000/svg" viewBox="0 0 256 256" fill="currentColor"><path d="M208,20H72A36,36,0,0,0,36,56V224a12,12,0,0,0,12,12H192a12,12,0,0,0,0-24H60v-4a12,12,0,0,1,12-12H208a12,12,0,0,0,12-12V32A12,12,0,0,0,208,20ZM120,44h36v59l-10.51-8.41a12,12,0,0,0-15,0L120,103Zm76,128H72a35.59,35.59,0,0,0-12,2.06V56A12,12,0,0,1,72,44H96v84a12,12,0,0,0,19.5,9.37l22.49-18,22.51,18A12,12,0,0,0,180,128V44h16Z"/></svg>
